elide/assets/src/img-fontMed.svg

<svg clip-rule="evenodd" fill-rule="evenodd" stroke-linejoin="round" stroke-miterlimit="2" viewBox="0 0 100 60" xmlns="http://www.w3.org/2000/svg"><g fill-rule="nonzero"><path d="m.026 0 .258-.7h.116l.256.7h-.112l-.06-.171h-.286l-.06.171zm.202-.255h.226l-.113-.319z" transform="matrix(22.76203207 0 0 22.76203207 10.9618641 38.0572159)"/><path d="m.346.012c-.039 0-.073-.008-.102-.023-.03-.015-.054-.037-.071-.065l-.011.076h-.095v-.72h.106v.301c.016-.023.038-.044.066-.062s.064-.027.108-.027c.048 0 .09.011.127.034s.066.054.087.093.031.084.031.134-.01.094-.031.133-.05.07-.087.092c-.037.023-.079.034-.128.034zm-.018-.092c.045 0 .083-.015.112-.047.029-.031.044-.071.044-.121 0-.033-.007-.062-.02-.087s-.032-.045-.055-.06c-.023-.014-.05-.021-.081-.021-.045 0-.082.016-.111.047s-.044.072-.044.121c0 .05.015.09.044.121.029.032.066.047.111.047z" transform="matrix(22.76203207 0 0 22.76203207 26.50817236 38.0572159)"/><path d="m.302.012c-.049 0-.092-.011-.13-.033-.039-.022-.069-.053-.09-.092-.022-.039-.033-.084-.033-.135s.011-.097.033-.136c.021-.039.051-.069.09-.091.038-.022.081-.033.13-.033.061 0 .113.016.155.048.041.032.068.075.08.13h-.111c-.007-.027-.021-.049-.044-.064s-.049-.023-.08-.023c-.026 0-.05.006-.072.019s-.04.032-.053.057-.02.056-.02.093.007.067.02.092.031.045.053.058.046.02.072.02c.031 0 .057-.008.08-.023s.037-.037.044-.065h.111c-.011.053-.038.096-.08.129-.042.033-.094.049-.155.049z" transform="matrix(22.76203207 0 0 22.76203207 41.07544952 38.0572159)"/><path d="m.143 0v-.58l-.113.026v-.078l.155-.068h.068v.7z" transform="matrix(22.76203207 0 0 22.76203207 54.3920365 38.0572159)"/><path d="m.057 0v-.076c.045-.036.089-.072.13-.109s.078-.073.111-.109c.032-.035.057-.07.076-.105.019-.034.028-.067.028-.099 0-.021-.004-.042-.011-.061s-.019-.034-.036-.046c-.017-.011-.039-.017-.067-.017-.042 0-.073.013-.094.04s-.032.059-.031.096h-.103c.001-.049.011-.091.032-.124.02-.033.047-.059.082-.076.034-.017.073-.026.116-.026.066 0 .119.019.159.055.039.038.059.089.059.155 0 .039-.009.078-.028.117-.02.039-.044.076-.074.111-.031.036-.063.07-.098.101s-.068.06-.099.085h.32v.088z" transform="matrix(22.76203207 0 0 22.76203207 61.7656401 38.0572159)"/><path d="m.295.012c-.045 0-.086-.008-.123-.025-.037-.016-.067-.041-.089-.074s-.034-.075-.035-.125h.105c.001.037.014.069.039.094.024.026.058.039.103.039.043 0 .075-.012.098-.036.023-.023.034-.053.034-.088 0-.043-.015-.074-.045-.095-.031-.021-.068-.031-.112-.031h-.052v-.088h.053c.039 0 .071-.009.096-.028.024-.019.036-.045.036-.079 0-.029-.009-.052-.028-.07s-.046-.027-.081-.027c-.036 0-.064.01-.085.031s-.032.048-.034.079h-.105c.001-.041.012-.076.031-.106s.045-.053.078-.07.072-.025.115-.025c.047 0 .086.008.118.024.031.017.055.039.072.066.016.028.024.058.024.091 0 .037-.01.07-.031.098s-.048.047-.083.056c.04.009.073.028.099.058.026.031.039.07.039.118 0 .039-.009.074-.027.106-.018.033-.045.059-.08.078-.035.019-.079.029-.13.029z" transform="matrix(22.76203207 0 0 22.76203207 74.78587172 38.0572159)"/></g></svg>

<?xml version="1.0" encoding="UTF-8" standalone="no"?>
<!DOCTYPE svg PUBLIC "-//W3C//DTD SVG 1.1//EN" "http://www.w3.org/Graphics/SVG/1.1/DTD/svg11.dtd">
<svg width="100%" height="100%" viewBox="0 0 100 60" version="1.1" xmlns="http://www.w3.org/2000/svg" xmlns:xlink="http://www.w3.org/1999/xlink" xml:space="preserve" xmlns:serif="http://www.serif.com/" style="fill-rule:evenodd;clip-rule:evenodd;stroke-linejoin:round;stroke-miterlimit:2;">
    <g transform="matrix(1.76402,0,0,1.76402,-627.975,-388.474)">
        <g transform="matrix(12.9035,0,0,12.9035,362.205,241.795)">
            <path d="M0.026,0L0.284,-0.7L0.4,-0.7L0.656,0L0.544,0L0.484,-0.171L0.198,-0.171L0.138,0L0.026,0ZM0.228,-0.255L0.454,-0.255L0.341,-0.574L0.228,-0.255Z" style="fill-rule:nonzero;"/>
        </g>
        <g transform="matrix(12.9035,0,0,12.9035,371.018,241.795)">
            <path d="M0.346,0.012C0.307,0.012 0.273,0.004 0.244,-0.011C0.214,-0.026 0.19,-0.048 0.173,-0.076L0.162,0L0.067,0L0.067,-0.72L0.173,-0.72L0.173,-0.419C0.189,-0.442 0.211,-0.463 0.239,-0.481C0.267,-0.499 0.303,-0.508 0.347,-0.508C0.395,-0.508 0.437,-0.497 0.474,-0.474C0.511,-0.451 0.54,-0.42 0.561,-0.381C0.582,-0.342 0.592,-0.297 0.592,-0.247C0.592,-0.197 0.582,-0.153 0.561,-0.114C0.54,-0.075 0.511,-0.044 0.474,-0.022C0.437,0.001 0.395,0.012 0.346,0.012ZM0.328,-0.08C0.373,-0.08 0.411,-0.095 0.44,-0.127C0.469,-0.158 0.484,-0.198 0.484,-0.248C0.484,-0.281 0.477,-0.31 0.464,-0.335C0.451,-0.36 0.432,-0.38 0.409,-0.395C0.386,-0.409 0.359,-0.416 0.328,-0.416C0.283,-0.416 0.246,-0.4 0.217,-0.369C0.188,-0.338 0.173,-0.297 0.173,-0.248C0.173,-0.198 0.188,-0.158 0.217,-0.127C0.246,-0.095 0.283,-0.08 0.328,-0.08Z" style="fill-rule:nonzero;"/>
        </g>
        <g transform="matrix(12.9035,0,0,12.9035,379.276,241.795)">
            <path d="M0.302,0.012C0.253,0.012 0.21,0.001 0.172,-0.021C0.133,-0.043 0.103,-0.074 0.082,-0.113C0.06,-0.152 0.049,-0.197 0.049,-0.248C0.049,-0.299 0.06,-0.345 0.082,-0.384C0.103,-0.423 0.133,-0.453 0.172,-0.475C0.21,-0.497 0.253,-0.508 0.302,-0.508C0.363,-0.508 0.415,-0.492 0.457,-0.46C0.498,-0.428 0.525,-0.385 0.537,-0.33L0.426,-0.33C0.419,-0.357 0.405,-0.379 0.382,-0.394C0.359,-0.409 0.333,-0.417 0.302,-0.417C0.276,-0.417 0.252,-0.411 0.23,-0.398C0.208,-0.385 0.19,-0.366 0.177,-0.341C0.164,-0.316 0.157,-0.285 0.157,-0.248C0.157,-0.211 0.164,-0.181 0.177,-0.156C0.19,-0.131 0.208,-0.111 0.23,-0.098C0.252,-0.085 0.276,-0.078 0.302,-0.078C0.333,-0.078 0.359,-0.086 0.382,-0.101C0.405,-0.116 0.419,-0.138 0.426,-0.166L0.537,-0.166C0.526,-0.113 0.499,-0.07 0.457,-0.037C0.415,-0.004 0.363,0.012 0.302,0.012Z" style="fill-rule:nonzero;"/>
        </g>
        <g transform="matrix(12.9035,0,0,12.9035,386.825,241.795)">
            <path d="M0.143,0L0.143,-0.58L0.03,-0.554L0.03,-0.632L0.185,-0.7L0.253,-0.7L0.253,0L0.143,0Z" style="fill-rule:nonzero;"/>
        </g>
        <g transform="matrix(12.9035,0,0,12.9035,391.005,241.795)">
            <path d="M0.057,0L0.057,-0.076C0.102,-0.112 0.146,-0.148 0.187,-0.185C0.228,-0.222 0.265,-0.258 0.298,-0.294C0.33,-0.329 0.355,-0.364 0.374,-0.399C0.393,-0.433 0.402,-0.466 0.402,-0.498C0.402,-0.519 0.398,-0.54 0.391,-0.559C0.384,-0.578 0.372,-0.593 0.355,-0.605C0.338,-0.616 0.316,-0.622 0.288,-0.622C0.246,-0.622 0.215,-0.609 0.194,-0.582C0.173,-0.555 0.162,-0.523 0.163,-0.486L0.06,-0.486C0.061,-0.535 0.071,-0.577 0.092,-0.61C0.112,-0.643 0.139,-0.669 0.174,-0.686C0.208,-0.703 0.247,-0.712 0.29,-0.712C0.356,-0.712 0.409,-0.693 0.449,-0.657C0.488,-0.619 0.508,-0.568 0.508,-0.502C0.508,-0.463 0.499,-0.424 0.48,-0.385C0.46,-0.346 0.436,-0.309 0.406,-0.274C0.375,-0.238 0.343,-0.204 0.308,-0.173C0.273,-0.142 0.24,-0.113 0.209,-0.088L0.529,-0.088L0.529,0L0.057,0Z" style="fill-rule:nonzero;"/>
        </g>
        <g transform="matrix(12.9035,0,0,12.9035,398.386,241.795)">
            <path d="M0.295,0.012C0.25,0.012 0.209,0.004 0.172,-0.013C0.135,-0.029 0.105,-0.054 0.083,-0.087C0.061,-0.12 0.049,-0.162 0.048,-0.212L0.153,-0.212C0.154,-0.175 0.167,-0.143 0.192,-0.118C0.216,-0.092 0.25,-0.079 0.295,-0.079C0.338,-0.079 0.37,-0.091 0.393,-0.115C0.416,-0.138 0.427,-0.168 0.427,-0.203C0.427,-0.246 0.412,-0.277 0.382,-0.298C0.351,-0.319 0.314,-0.329 0.27,-0.329L0.218,-0.329L0.218,-0.417L0.271,-0.417C0.31,-0.417 0.342,-0.426 0.367,-0.445C0.391,-0.464 0.403,-0.49 0.403,-0.524C0.403,-0.553 0.394,-0.576 0.375,-0.594C0.356,-0.612 0.329,-0.621 0.294,-0.621C0.258,-0.621 0.23,-0.611 0.209,-0.59C0.188,-0.569 0.177,-0.542 0.175,-0.511L0.07,-0.511C0.071,-0.552 0.082,-0.587 0.101,-0.617C0.12,-0.647 0.146,-0.67 0.179,-0.687C0.212,-0.704 0.251,-0.712 0.294,-0.712C0.341,-0.712 0.38,-0.704 0.412,-0.688C0.443,-0.671 0.467,-0.649 0.484,-0.622C0.5,-0.594 0.508,-0.564 0.508,-0.531C0.508,-0.494 0.498,-0.461 0.477,-0.433C0.456,-0.405 0.429,-0.386 0.394,-0.377C0.434,-0.368 0.467,-0.349 0.493,-0.319C0.519,-0.288 0.532,-0.249 0.532,-0.201C0.532,-0.162 0.523,-0.127 0.505,-0.095C0.487,-0.062 0.46,-0.036 0.425,-0.017C0.39,0.002 0.346,0.012 0.295,0.012Z" style="fill-rule:nonzero;"/>
        </g>
    </g>
</svg>
